X:273
T:Eamonn a' Chnuic
M:3/4
L:1/4
K:GMaj
"G"B/2"D/F#"A/2|"Em"G2E/2F/2|"C"G2"D"G/2A/2|"Em"B/2g3/2f|"C"e2e|"G"d3/2B
/2A|"Bm"G3/2A/2B|"Am"c3/2B/2 A/2G/2|"C"E2"C/D"B/2A/2|
"G"G2E/2F/2|G2G/2A/2|"Bm"B/2"Em"g3/2"D"f|"C"e2"D"f/2e/2|"Bm"d3/2B/2A|"Em
"G3/2A/2B|"Am"A3/2G/2 "D"F/2G/4A/4|"G"G2d||
ecg|d2B/2d/2|e/2f3/2e|d2d|d3/2B/2A|GAB|c3/2B/2 A/2G/2|E2B/2A/2|
G2E/2F/2|G2G/2A/2|B/2g3/2f|e2f/2e/2|d3/2B/2A|G3/2A/2B|A3/2G/2 F/2G/4A/4|
G2||
% Output from ABC2Win  Version 2.1 i on 7/19/2006
% Written by ABC2Win  2.2.124 BETA on 7/23/2006
